X: 21
T:White Ladies Aston (2)
T:Lord of the Dance
M:4/4
L:1/8
Q:160
Z:Brian Martin <brian_martin12345@yahoo.com> Winterbourn Downs Morris  (rcvd Jan 2003)
K:G
D2 | GFGA BABc | d2d2B4 | A2A2A2B2 | cBAG FED2 | GFGA BABc | d2d2B4 | A2A2BcBA | G2G2G2 :|
Bc | d4B3A | BcBAG4 | B2Bcd2cB | A2A2A2D2 | G2G2G3A | BABcd2cB | A2A2BcBA | G2G2G2 :|
